X:70
T: Sligo Then and Now
C: Martin Wynne
Z: B.Black
R: reel
M: 4/4
L: 1/8
K: G
A | BGEG Bcdg | edBd eg g2 | agba gedB | eBdB A2 GA |
BGEG Bcdg | edBd eg g2 | agba gedB | AGBA G3 :|
d | g3 e a3 f | gabg aged | Bd d2 ed d2 | gedB A2 Bd |
g3 e a3 f | gabg aged | Bdef gedB | AGBA G3 :|
